X:3012
T:Cottage in Hayley Wood, The
R:Jig
C:Derek Magee
O:Cambridgeshire England
M:6/8
L:1/8
Q:1/8=160
K:G
D|"Em"E2 F GFE|BAG FGE|"D"D2 F A2 d|edB AFD|
"Em"E2 F GFE|BAB e2 f|gfe dBG|"D"FAF E2:|
|:f|"Em"gfg fed|"D"FAd fed|GBd FAd|"Em"fed e2 f|
gfg bag|"D"fge fga|"Bm"bag faf|"Em"efd e2:|

